/* XPM */
static const char *collectibles[] = {
/* columns rows colors chars-per-pixel */
"64 64 160 2 ",
"   c #092D49",
".  c #0C375A",
"X  c #0C3A5C",
"o  c #1A3F5D",
"O  c #1B405D",
"+  c #0D426E",
"@  c #13466F",
"#  c #1C4A6F",
"$  c #0C4571",
"%  c #0E4B7B",
"&  c #1D4C71",
"*  c #174F7C",
"=  c #184F7C",
"-  c #10517E",
";  c #1C527D",
":  c #224D6F",
">  c #254F70",
",  c #2A5170",
"<  c #22547D",
"1  c #2C597D",
"2  c #365671",
"3  c #385771",
"4  c #3B5971",
"5  c #365D7B",
"6  c #0F5282",
"7  c #18588C",
"8  c #225F8D",
"9  c #406582",
"0  c #1B78C1",
"q  c #1B7FCE",
"w  c #1D83CC",
"e  c #1D89CD",
"r  c #1C83D4",
"t  c #1E8ADF",
"y  c #2382CF",
"u  c #2A88D3",
"i  c #208BDF",
"p  c #398FD3",
"a  c #2092D9",
"s  c #1E8BE2",
"d  c #1E8FE9",
"f  c #1F90E6",
"g  c #1F90EA",
"h  c #1F95F3",
"j  c #248DE0",
"k  c #2692E6",
"l  c #2C90E0",
"z  c #2493EA",
"x  c #2B98EE",
"c  c #3294E1",
"v  c #3398E9",
"b  c #2196F3",
"n  c #2599F4",
"m  c #2C9BF4",
"M  c #229EFB",
"N  c #339EF4",
"B  c #22A0FC",
"V  c #2BA2FB",
"C  c #25A8FB",
"Z  c #36A0F5",
"A  c #3BA2F5",
"S  c #32A6FD",
"D  c #30AFFE",
"F  c #3DABFC",
"G  c #4395D7",
"H  c #4D9AD7",
"J  c #579ED7",
"K  c #5C9FD4",
"L  c #5FA0D4",
"P  c #5BA0D8",
"I  c #63A2D5",
"U  c #65A4D8",
"Y  c #69A7D8",
"T  c #71A7D3",
"R  c #72A9D6",
"E  c #79ACD5",
"W  c #74ACD9",
"Q  c #469CE1",
"!  c #4EA0E2",
"~  c #54A4E4",
"^  c #52A6E8",
"/  c #42A5F5",
"(  c #48A6F1",
")  c #46A8F5",
"_  c #4EABF5",
"`  c #45AEFC",
"'  c #54AEF5",
"]  c #59AFF5",
"[  c #57B0F7",
"{  c #5DB2F6",
"}  c #54B5FB",
"|  c #58B7FC",
" . c #5AB9FC",
".. c #64B1E7",
"X. c #7DB8E7",
"o. c #64B5F6",
"O. c #68B7F6",
"+. c #67B8F7",
"@. c #6DB9F6",
"#. c #66B7F8",
"$. c #67BAFA",
"%. c #6BBAF8",
"&. c #75BDF7",
"*. c #78BFF7",
"=. c #76BFF8",
"-. c #79BFF8",
";. c #5AC2FD",
":. c #6FC2FD",
">. c #7FC2F7",
",. c #7DC2F9",
"<. c #90B7D7",
"1. c #9BBCD8",
"2. c #9EC0DB",
"3. c #A2C2DC",
"4. c #83C3F7",
"5. c #83C4F8",
"6. c #8AC7F8",
"7. c #8AC7F8",
"8. c #8DCAFA",
"9. c #8EC8F8",
"0. c #8DC9F9",
"q. c #93CBF9",
"w. c #91CCFB",
"e. c #94CCF9",
"r. c #9ACEF9",
"t. c #9CCFFA",
"y. c #99CEFA",
"u. c #9DD0FA",
"i. c #9ED1FA",
"p. c #9FD2FB",
"a. c #9DD0FA",
"s. c #ACD1ED",
"d. c #A0D3FB",
"f. c #A3D2FA",
"g. c #A1D1FA",
"h. c #A4D3FA",
"j. c #A6D4FA",
"k. c #A2D4FC",
"l. c #A3D3FA",
"z. c #A9D6FA",
"x. c #ADD7FB",
"c. c #A8D7FC",
"v. c #AAD6FA",
"b. c #ADD8FB",
"n. c #ABD8FC",
"m. c #AED8FB",
"M. c #B5DBFB",
"N. c #B7DCFB",
"B. c #B7DEFD",
"V. c #B7DCFA",
"C. c #BADEFB",
"Z. c #BADEFB",
"A. c #BDE1FC",
"S. c #C2E3FC",
"D. c #C4E2FC",
"F. c #C2E2FC",
"G. c #CCE6FC",
"H. c #D3EAFD",
"J. c None",
"K. c black",
/* pixels */
"J.J.J.J.J.J.J.J.J.J.J.J.J.J.J.J.J.J.J.J.J.J.J.J.J.J.J.J.J.J.J.J.J.J.J.J.J.J.J.J.J.J.J.J.J.J.J.J.J.J.J.J.J.J.J.J.J.J.J.J.J.J.J.J.",
"J.J.J.J.J.J.J.J.J.J.J.J.J.J.J.J.J.J.J.J.J.J.J.J.J.J.J.J.J.J.J.J.J.J.J.J.J.J.J.J.J.J.J.J.J.J.J.J.J.J.J.J.J.J.J.J.J.J.J.J.J.J.J.J.",
"J.J.J.J.J.J.J.J.J.J.J.J.J.J.J.J.J.J.J.J.J.J.J.J.J.J.J.J.J.J.J.J.J.J.J.J.J.J.J.J.J.J.J.J.J.J.J.J.J.J.J.J.J.J.J.J.J.J.J.J.J.J.J.J.",
"J.J.J.J.J.J.J.J.J.J.J.J.J.J.J.J.J.J.J.J.J.J.J.J.J.J.J.J.J.J.J.J.J.J.J.J.J.J.J.J.J.J.J.J.J.J.J.J.J.J.J.J.J.J.J.J.J.J.J.J.J.J.J.J.",
"J.J.J.J.J.J.J.J.J.J.J.J.J.J.J.J.J.J.J.J.J.J.J.J.J.J.J.J.J.J.J.J.J.J.J.J.J.J.J.J.J.J.J.J.J.J.J.J.J.J.J.J.J.J.J.J.J.J.J.J.J.J.J.J.",
"J.J.J.J.J.J.J.J.J.J.J.J.J.J.J.J.J.J.J.J.J.J.J.J.J.J.J.J.J.J.J.J.J.J.J.J.J.J.J.J.J.J.J.J.J.J.J.J.J.J.J.J.J.J.J.J.J.J.J.J.J.J.J.J.",
"J.J.J.J.J.J.J.J.J.J.J.J.J.J.J.J.J.J.J.J.J.J.J.J.J.J.J.J.J.J.J.J.J.J.J.J.J.J.J.J.J.J.J.J.J.J.J.J.J.J.J.J.J.J.J.J.J.J.J.J.J.J.J.J.",
"J.J.J.J.J.J.J.J.J.J.J.J.J.J.J.J.J.J.J.J.J.J.J.J.J.J.J.J.J.J.J.J.J.J.J.J.J.J.J.J.J.J.J.J.J.J.J.J.J.J.J.J.J.J.J.J.J.J.J.J.J.J.J.J.",
"J.J.J.J.J.J.J.J.J.J.J.J.J.J.J.J.J.J.J.J.J.J.J.J.J.J.J.J.J.J.J.J.J.J.J.J.J.J.J.J.J.J.J.J.J.J.J.J.J.J.J.J.J.J.J.J.J.J.J.J.J.J.J.J.",
"J.J.J.J.J.J.J.J.J.J.J.J.J.J.J.J.J.J.J.J.J.J.J.J.J.J.J.J.J.J.J.J.J.J.J.J.J.J.J.J.J.J.J.J.J.J.J.J.J.J.J.J.J.J.J.J.J.J.J.J.J.J.J.J.",
"J.J.J.J.J.J.J.J.J.J.J.J.J.J.J.J.J.J.J.J.J.J.J.J.J.J.J.J.J.J.J.J.J.J.J.J.J.J.J.J.J.J.J.J.J.J.J.J.J.J.J.J.J.J.J.J.J.J.J.J.J.J.J.J.",
"J.J.J.J.J.J.J.J.J.J.J.J.J.J.J.J.J.J.J.J.J.J.J.J.J.J.J.J.J.J.J.J.J.J.J.J.J.J.J.J.J.J.J.J.J.J.J.J.J.J.J.J.J.J.J.J.J.J.J.J.J.J.J.J.",
"J.J.J.J.J.J.J.J.J.J.J.J.J.J.J.J.J.J.J.J.J.J.J.J.J.J.J.J.J.J.J.J.J.J.J.J.J.J.J.J.J.J.J.J.J.J.J.J.J.J.J.J.J.J.J.J.J.J.J.J.J.J.J.J.",
"J.J.J.J.J.J.J.J.J.J.J.J.J.J.J.J.J.J.J.J.J.J.J.J.J.J.J.J.J.J.J.J.J.J.J.J.J.J.J.J.J.J.J.J.J.J.J.J.J.J.J.J.J.J.J.J.J.J.J.J.J.J.J.J.",
"J.J.J.J.J.J.J.J.J.J.J.J.J.J.J.J.J.J.J.J.J.J.J.J.J.J.J.J.J.J.J.J.J.J.J.J.J.J.J.J.J.J.J.J.J.J.J.J.J.J.J.J.J.J.J.J.J.J.J.J.J.J.J.J.",
"J.J.J.J.J.J.J.J.J.J.J.J.J.J.J.J.J.J.J.J.J.J.J.J.J.J.J.J.J.J.J.J.J.J.J.J.J.J.J.J.J.J.J.J.J.J.J.J.J.J.J.J.J.J.J.J.J.J.J.J.J.J.J.J.",
"J.J.J.J.J.J.J.J.J.J.J.J.J.J.J.J.J.J.J.X + + + + + + $ + @ + @ + + @ @ + + + + $ + + + + @ + X J.J.J.J.J.J.J.J.J.J.J.J.J.J.J.J.J.",
"J.J.J.J.J.J.J.J.J.J.J.J.J.J.J.J.J.J.+ w j i j t t s k c Q c Q l l ~ ! l i j s f t t s l Q l y @ J.J.J.J.J.J.J.J.J.J.J.J.J.J.J.J.",
"J.J.J.J.J.J.J.J.J.J.J.J.J.J.J.J.J.X q n ) Z _ m b m #.5./ ' A [ o.*.) %.A _ m b g b m ) A [ _ y X J.J.J.J.J.J.J.J.J.J.J.J.J.J.J.",
"J.J.J.J.J.J.J.J.J.J.J.J.J.J.J.J.J.% s b m [ { m N O.q.) ' o.{ @.5.o.{ o.{ ' m n b z ( A ] { m s % J.J.J.J.J.J.J.J.J.J.J.J.J.J.J.",
"J.J.J.J.J.J.J.J.J.J.J.J.J.J.J.J.@ u N b n ' [ / 5.y./ m ' o.@.>.o.A { o.' m m ' m n v ' o.o.A N u @ J.J.J.J.J.J.J.J.J.J.J.J.J.J.",
"J.J.J.J.J.J.J.J.J.J.J.J.J.J.J.+ u 9.d.) m N [ t.C.j./ b m [ 5.o.A ' o.{ m b A =.) o.] v { d.N.h.4.p # J.J.J.J.J.J.J.J.J.J.J.J.J.",
"J.J.J.J.J.J.J.J.J.J.J.J.J.J.X q m #.d.c.,. .+.i.y.x.j.) N / =.o.' / o.' N / e.i.d.h.*.m Z ,.w.d.n.q.T o J.J.J.J.J.J.J.J.J.J.J.J.",
"J.J.J.J.J.J.J.J.J.J.J.J.J.J.% s b V S F ;.;.' o.#.9.z.m.j.5.' o.O.5.5.' 7.M.F.C.i.) m b C D S S S A ~ ; J.J.J.J.J.J.J.J.J.J.J.J.",
"J.J.J.J.J.J.J.J.J.J.J.J.J.X a V m b b b V m n m V } ' / %.i.x.h.5.y.N.m.A.B.d.=.| V M n b B b b n b n a X J.J.J.J.J.J.J.J.J.J.J.",
"J.J.J.J.J.J.J.J.J.J.J.J.J.. u =.,.m h b b b b b m n n b S  ._ i.F.A.9.o.` F S m n b m _ V b b m ' N b r X J.J.J.J.J.J.J.J.J.J.J.",
"J.J.J.J.J.J.J.J.J.J.J.J.J.J.# I y./ m b b b b m _ m b b Z =.N [ :.$.` [ ' m n b b Z ] ' n b b N 5.*.u % J.J.J.J.J.J.J.J.J.J.J.J.",
"J.J.J.J.J.J.J.J.J.J.J.J.J.J.J., <.i.o.n b b b m _ m b n [ e.A o.5.%.>.O.' m _ m Z 7.o.m b b m o.4.P * J.J.J.J.J.J.J.J.J.J.J.J.J.",
"J.J.J.J.J.J.J.J.J.J.J.J.J.J.J.J.2 1.9.A b b b b m _ m b A i._ 5.9.*.i.o.m m _ N o.5.} n b b A h.U ; J.J.J.J.J.J.J.J.J.J.J.J.J.J.",
"J.J.J.J.J.J.J.J.J.J.J.J.J.J.J.J.J.2 1.5.N n b d m _ m b m >.9.q.9.*.d.{ m _ m A q.o.m b b A &.3.1 J.J.J.J.J.J.J.J.J.J.J.J.J.J.J.",
"J.J.J.J.J.J.J.J.J.J.J.J.J.J.J.J.J.J.4 2.@.' N b b m _ m b A x.y.q.y.t.A m _ N O.9.Z b b / j.s.9 J.J.J.J.J.J.J.J.J.J.J.J.J.J.J.J.",
"J.J.J.J.J.J.J.J.J.J.J.J.J.J.J.J.J.J.J.5 X.=.*.m h m _ m b N m.i.y.C.7.A ) m A y.` b b A m.e...J.J.J.J.J.J.J.J.J.J.J.J.J.J.J.J.J.",
"J.J.J.J.J.J.J.J.J.J.J.J.J.J.J.J.J.J.J.O E h.i.A b b m _ n N d.m.d.F.*.' m N >.5.m b A 9.C.I & J.J.J.J.J.J.J.J.J.J.J.J.J.J.J.J.J.",
"J.J.J.J.J.J.J.J.J.J.J.J.J.J.J.J.J.J.J.J., E q.>.m n m _ m m 5.F.D.m.@.' m o.e.F b A i.N.Y < J.J.J.J.J.J.J.J.J.J.J.J.J.J.J.J.J.J.",
"J.J.J.J.J.J.J.J.J.J.J.J.J.J.J.J.J.J.J.J.J.: I e.) _ z m _ m / G.H.m.o.m N 5.>.m A y.z.G * J.J.J.J.J.J.J.J.J.J.J.J.J.J.J.J.J.J.J.",
"J.J.J.J.J.J.J.J.J.J.J.J.J.J.J.J.J.J.J.J.J.J.> E >.o.m m ' m Z F.F.h.{ m o.6.A m 5.d.U * J.J.J.J.J.J.J.J.J.J.J.J.J.J.J.J.J.J.J.J.",
"J.J.J.J.J.J.J.J.J.J.J.J.J.J.J.J.J.J.J.J.J.J.J.> K 4.o.N ' m Z F.G.@.m A 5.F b / z.U ; J.J.J.J.J.J.J.J.J.J.J.J.J.J.J.J.J.J.J.J.J.",
"J.J.J.J.J.J.J.J.J.J.J.J.J.J.J.J.J.J.J.J.J.J.J.J.# L 7./ / n N N.C.A N *.o.m Z 7.U < J.J.J.J.J.J.J.J.J.J.J.J.J.J.J.J.J.J.J.J.J.J.",
"J.J.J.J.J.J.J.J.J.J.J.J.J.J.J.J.J.J.J.J.J.J.J.J.J.: L *.Z b N j.m.A [ ,.A _ o.W < J.J.J.J.J.J.J.J.J.J.J.J.J.J.J.J.J.J.J.J.J.J.J.",
"J.J.J.J.J.J.J.J.J.J.J.J.J.J.J.J.J.J.J.J.J.J.J.J.J.J.: R { z N y.q.A o.} m m H 1 J.J.J.J.J.J.J.J.J.J.J.J.J.J.J.J.J.J.J.J.J.J.J.J.",
"J.J.J.J.J.J.J.J.J.J.J.J.J.J.J.J.J.J.J.J.J.J.J.J.J.J.J., I x k @.y.%.@.N b r ; J.J.J.J.J.J.J.J.J.J.J.J.J.J.J.J.J.J.J.J.J.J.J.J.J.",
"J.J.J.J.J.J.J.J.J.J.J.J.J.J.J.J.J.J.J.J.J.J.J.J.J.J.J.J.& 0 7 J 4.{ N b r % J.J.J.J.J.J.J.J.J.J.J.J.J.J.J.J.J.J.J.J.J.J.J.J.J.J.",
"J.J.J.J.J.J.J.J.J.J.J.J.J.J.J.J.J.J.J.J.J.J.J.J.J.J.J.J.J.. J.8 ^ S b r % J.J.J.J.J.J.J.J.J.J.J.J.J.J.J.J.J.J.J.J.J.J.J.J.J.J.J.",
"J.J.J.J.J.J.J.J.J.J.J.J.J.J.J.J.J.J.J.J.J.J.J.J.J.J.J.J.J.J.. w n z r % J.J.J.J.J.J.J.J.J.J.J.J.J.J.J.J.J.J.J.J.J.J.J.J.J.J.J.J.",
"J.J.J.J.J.J.J.J.J.J.J.J.J.J.J.J.J.J.J.J.J.J.J.J.J.J.J.J.J.J.  - e 6 + J.J.J.J.J.J.J.J.J.J.J.J.J.J.J.J.J.J.J.J.J.J.J.J.J.J.J.J.J.",
"J.J.J.J.J.J.J.J.J.J.J.J.J.J.J.J.J.J.J.J.J.J.J.J.J.J.J.J.J.J.J.J.X J.J.J.J.J.J.J.J.J.J.J.J.J.J.J.J.J.J.J.J.J.J.J.J.J.J.J.J.J.J.J.",
"J.J.J.J.J.J.J.J.J.J.J.J.J.J.J.J.J.J.J.J.J.J.J.J.J.J.J.J.J.J.J.J.J.J.J.J.J.J.J.J.J.J.J.J.J.J.J.J.J.J.J.J.J.J.J.J.J.J.J.J.J.J.J.J.",
"J.J.J.J.J.J.J.J.J.J.J.J.J.J.J.J.J.J.J.J.J.J.J.J.J.J.J.J.J.J.J.J.J.J.J.J.J.J.J.J.J.J.J.J.J.J.J.J.J.J.J.J.J.J.J.J.J.J.J.J.J.J.J.J.",
"J.J.J.J.J.J.J.J.J.J.J.J.J.J.J.J.J.J.J.J.J.J.J.J.J.J.J.J.J.J.J.J.J.J.J.J.J.J.J.J.J.J.J.J.J.J.J.J.J.J.J.J.J.J.J.J.J.J.J.J.J.J.J.J.",
"J.J.J.J.J.J.J.J.J.J.J.J.J.J.J.J.J.J.J.J.J.J.J.J.J.J.J.J.J.J.J.J.J.J.J.J.J.J.J.J.J.J.J.J.J.J.J.J.J.J.J.J.J.J.J.J.J.J.J.J.J.J.J.J.",
"J.J.J.J.J.J.J.J.J.J.J.J.J.J.J.J.J.J.J.J.J.J.J.J.J.J.J.J.J.J.J.J.J.J.J.J.J.J.J.J.J.J.J.J.J.J.J.J.J.J.J.J.J.J.J.J.J.J.J.J.J.J.J.J.",
"J.J.J.J.J.J.J.J.J.J.J.J.J.J.J.J.J.J.J.J.J.J.J.J.J.J.J.J.J.J.J.J.J.J.J.J.J.J.J.J.J.J.J.J.J.J.J.J.J.J.J.J.J.J.J.J.J.J.J.J.J.J.J.J.",
"J.J.J.J.J.J.J.J.J.J.J.J.J.J.J.J.J.J.J.J.J.J.J.J.J.J.J.J.J.J.J.J.J.J.J.J.J.J.J.J.J.J.J.J.J.J.J.J.J.J.J.J.J.J.J.J.J.J.J.J.J.J.J.J.",
"J.J.J.J.J.J.J.J.J.J.J.J.J.J.J.J.J.J.J.J.J.J.J.J.J.J.J.J.J.J.J.J.J.J.J.J.J.J.J.J.J.J.J.J.J.J.J.J.J.J.J.J.J.J.J.J.J.J.J.J.J.J.J.J.",
"J.J.J.J.J.J.J.J.J.J.J.J.J.J.J.J.J.J.J.J.J.J.J.J.J.J.J.J.J.J.J.J.J.J.J.J.J.J.J.J.J.J.J.J.J.J.J.J.J.J.J.J.J.J.J.J.J.J.J.J.J.J.J.J.",
"J.J.J.J.J.J.J.J.J.J.J.J.J.J.J.J.J.J.J.J.J.J.J.J.J.J.J.J.J.J.J.J.J.J.J.J.J.J.J.J.J.J.J.J.J.J.J.J.J.J.J.J.J.J.J.J.J.J.J.J.J.J.J.J.",
"J.J.J.J.J.J.J.J.J.J.J.J.J.J.J.J.J.J.J.J.J.J.J.J.J.J.J.J.J.J.J.J.J.J.J.J.J.J.J.J.J.J.J.J.J.J.J.J.J.J.J.J.J.J.J.J.J.J.J.J.J.J.J.J.",
"J.J.J.J.J.J.J.J.J.J.J.J.J.J.J.J.J.J.J.J.J.J.J.J.J.J.J.J.J.J.J.J.J.J.J.J.J.J.J.J.J.J.J.J.J.J.J.J.J.J.J.J.J.J.J.J.J.J.J.J.J.J.J.J.",
"J.J.J.J.J.J.J.J.J.J.J.J.J.J.J.J.J.J.J.J.J.J.J.J.J.J.J.J.J.J.J.J.J.J.J.J.J.J.J.J.J.J.J.J.J.J.J.J.J.J.J.J.J.J.J.J.J.J.J.J.J.J.J.J.",
"J.J.J.J.J.J.J.J.J.J.J.J.J.J.J.J.J.J.J.J.J.J.J.J.J.J.J.J.J.J.J.J.J.J.J.J.J.J.J.J.J.J.J.J.J.J.J.J.J.J.J.J.J.J.J.J.J.J.J.J.J.J.J.J.",
"J.J.J.J.J.J.J.J.J.J.J.J.J.J.J.J.J.J.J.J.J.J.J.J.J.J.J.J.J.J.J.J.J.J.J.J.J.J.J.J.J.J.J.J.J.J.J.J.J.J.J.J.J.J.J.J.J.J.J.J.J.J.J.J.",
"J.J.J.J.J.J.J.J.J.J.J.J.J.J.J.J.J.J.J.J.J.J.J.J.J.J.J.J.J.J.J.J.J.J.J.J.J.J.J.J.J.J.J.J.J.J.J.J.J.J.J.J.J.J.J.J.J.J.J.J.J.J.J.J.",
"J.J.J.J.J.J.J.J.J.J.J.J.J.J.J.J.J.J.J.J.J.J.J.J.J.J.J.J.J.J.J.J.J.J.J.J.J.J.J.J.J.J.J.J.J.J.J.J.J.J.J.J.J.J.J.J.J.J.J.J.J.J.J.J.",
"J.J.J.J.J.J.J.J.J.J.J.J.J.J.J.J.J.J.J.J.J.J.J.J.J.J.J.J.J.J.J.J.J.J.J.J.J.J.J.J.J.J.J.J.J.J.J.J.J.J.J.J.J.J.J.J.J.J.J.J.J.J.J.J."
};
