/* XPM */
static const char *player[] = {
/* columns rows colors chars-per-pixel */
"64 64 207 2 ",
"   c #1F0F19",
".  c #220F19",
"X  c #25131A",
"o  c #29161F",
"O  c #281D1E",
"+  c #26201F",
"@  c #2A1721",
"#  c #2A1922",
"$  c #2F1B28",
"%  c #321D2C",
"&  c #341E33",
"*  c #262421",
"=  c #2B2625",
"-  c #2C2D22",
";  c #372323",
":  c #352D21",
">  c #283B2B",
",  c #373322",
"<  c #3B3623",
"1  c #372133",
"2  c #392235",
"3  c #36253A",
"4  c #3D253B",
"5  c #3A2D3B",
"6  c #37303A",
"7  c #3A323B",
"8  c #343C3A",
"9  c #3D3A3B",
"0  c #452E1D",
"q  c #4E2E1B",
"w  c #42272A",
"e  c #573528",
"r  c #4B2E37",
"t  c #412A3B",
"y  c #45373A",
"u  c #493B3C",
"i  c #553536",
"p  c #583636",
"a  c #5C3B35",
"s  c #53343B",
"d  c #603C34",
"f  c #274831",
"g  c #294932",
"h  c #2E4D39",
"j  c #33433A",
"k  c #3D4A38",
"l  c #275739",
"z  c #2C5239",
"x  c #265939",
"c  c #295A39",
"v  c #34563A",
"b  c #3D5A3C",
"n  c #2E6139",
"m  c #3A6436",
"M  c #33653A",
"N  c #346C3A",
"B  c #3B6B3A",
"V  c #37703A",
"C  c #3A753A",
"Z  c #3D7D3B",
"A  c #4D433C",
"S  c #454A3B",
"D  c #5E4838",
"F  c #4C5538",
"G  c #415A3C",
"H  c #58573E",
"J  c #5A5C3D",
"K  c #7D4F2E",
"L  c #6E543B",
"P  c #56652E",
"I  c #466434",
"U  c #416E3B",
"Y  c #576834",
"T  c #4A723B",
"R  c #417E3B",
"E  c #4A7D3B",
"W  c #577837",
"Q  c #736D2D",
"!  c #646634",
"~  c #6D6438",
"^  c #636E3D",
"/  c #627B3A",
"(  c #72753A",
")  c #754C42",
"_  c #605A40",
"`  c #725A42",
"'  c #795A43",
"]  c #567B40",
"[  c #636440",
"{  c #A6681D",
"}  c #A8681C",
"|  c #915B2B",
" . c #8B593C",
".. c #8D6626",
"X. c #99692B",
"o. c #8B762A",
"O. c #85673A",
"+. c #96613D",
"@. c #9A643C",
"#. c #9D683F",
"$. c #AD6D25",
"%. c #B06E24",
"&. c #A87B26",
"*. c #B57725",
"=. c #BA7623",
"-. c #BE7926",
";. c #B2722E",
":. c #BF7A28",
">. c #A66A35",
",. c #C27C27",
"<. c #C87E24",
"1. c #855745",
"2. c #875946",
"3. c #8A5A45",
"4. c #89774B",
"5. c #A4764D",
"6. c #B47F47",
"7. c #3F813C",
"8. c #42813C",
"9. c #4B853C",
"0. c #4E883C",
"q. c #51893C",
"w. c #5A883A",
"e. c #5D913D",
"r. c #7F822F",
"t. c #658134",
"y. c #698136",
"u. c #69853E",
"i. c #708734",
"p. c #70863E",
"a. c #728A3E",
"s. c #65943D",
"d. c #6E973E",
"f. c #6E9B3E",
"g. c #75903F",
"h. c #7C963D",
"j. c #739D3E",
"k. c #7D9F3F",
"l. c #76A03E",
"z. c #7EA43F",
"x. c #729241",
"c. c #7FA440",
"v. c #8A832C",
"b. c #869837",
"n. c #8D9E38",
"m. c #939C36",
"M. c #AE8425",
"N. c #A18828",
"B. c #B28524",
"V. c #BA8623",
"C. c #BC8A24",
"Z. c #AD912A",
"A. c #80A53F",
"S. c #82A93F",
"D. c #8BAD39",
"F. c #96A13A",
"G. c #8EB539",
"H. c #94BA37",
"J. c #A1BC2D",
"K. c #CB831F",
"L. c #D2851E",
"P. c #D8871D",
"I. c #D6881D",
"U. c #D48921",
"Y. c #DB942C",
"T. c #DE992F",
"R. c #C78834",
"E. c #C99B34",
"W. c #D19137",
"Q. c #DC9830",
"!. c #E8A73D",
"~. c #E5A83E",
"^. c #ABC529",
"/. c #B1CA26",
"(. c #ADD52C",
"). c #AED82C",
"_. c #A3CB31",
"`. c #BCE626",
"'. c #BFE925",
"]. c #CCF81F",
"[. c #D2FE1D",
"{. c #C2ED24",
"}. c #899440",
"|. c #80A640",
" X c #83A940",
".X c #97AE46",
"XX c #9CAC44",
"oX c #9EB149",
"OX c #AEAB43",
"+X c #B8B155",
"@X c #DAA852",
"#X c #D8BA51",
"$X c #ECB348",
"%X c #E8BA5F",
"&X c #E3B862",
"*X c #C9C057",
"=X c #D9C25C",
"-X c #E8C65B",
";X c #E0CA5F",
":X c #F5C257",
">X c #F4C359",
",X c #FAC75B",
"<X c #F7C85D",
"1X c #E9CD62",
"2X c #FCD266",
"3X c #FFD569",
"4X c #FFD86B",
/* pixels */
"X X X X X X X X X X X X X X X X X X X X X X X @ 1 4 4 4 4 4 4 4 4 4 4 4 4 4 4 1 @ X X X X X X X X X X X X X X X X X X X X X X X ",
"X X X X X X X X X X X X X X X X X X @ @ @ @ @ $ 2 4 4 4 4 4 4 4 4 4 4 4 4 4 4 2 $ @ @ @ @ @ X X X X X X X X X X X X X X X X X X ",
"X X X X X X X X X X X X X X X X X o % 1 1 1 1 2 4 4 4 4 4 4 4 4 4 4 4 4 4 4 4 4 2 1 1 1 1 % o X X X X X X X X X X X X X X X X X ",
"X X X X X X X X X X X X X X @ @ @ $ 2 4 4 4 4 4 4 4 4 4 4 4 4 4 4 4 4 4 4 4 4 4 4 4 4 4 4 2 $ @ @ @ X X X X X X X X X X X X X X ",
"X X X X X X X X X X X X X o % 2 1 2 4 4 4 4 4 4 4 4 4 4 4 4 4 4 4 4 4 4 4 4 4 4 4 4 4 4 4 4 2 1 1 % o X X X X X X X X X X X X X ",
"X X X X X X X X X X X X o $ 2 4 4 4 4 4 4 4 4 4 4 4 4 4 4 4 4 4 4 4 4 4 4 4 4 4 4 4 4 4 4 4 4 4 4 2 $ o X X X X X X X X X X X X ",
"X X X X X X X X X X X o % 2 4 4 4 4 4 4 4 4 4 4 4 4 4 4 4 4 4 4 4 4 4 4 4 4 4 4 4 4 4 4 4 4 4 4 4 4 2 % o X X X X X X X X X X X ",
"X X X X X X X X X X o $ 2 4 5 7 7 5 4 4 4 4 4 4 4 4 4 4 4 4 4 4 4 4 4 4 4 4 4 4 4 4 4 4 4 4 4 4 4 4 4 2 % o X X X X X X X X X X ",
"X X X X X X X X X o % 2 4 5 j h h j 5 4 4 4 4 4 4 4 4 4 4 4 4 4 4 4 4 4 4 4 4 4 4 4 4 4 4 4 4 4 4 4 4 4 2 % o X X X X X X X X X ",
"X X X X X X X X o $ 2 t u S v c c z 8 7 7 7 7 7 7 5 4 4 4 4 4 4 4 4 7 y A A A A A A A A A u t 4 4 4 4 4 4 2 % o X X X X X X X X ",
"X X X X X X X o % 2 4 u ^ / m l l l z h h h h h h j 5 4 4 4 4 4 4 7 b T u.p.p.p.p.p.p.p.a.^ u 4 4 4 4 4 4 4 2 % o X X X X X X X ",
"X X X X X X o % 2 4 4 A a.d.U l l l l c c c c c c z 8 7 6 7 9 y A F E e.l.S.S.S.A.|.|.S.S.g.J u t 4 4 4 4 4 4 2 $ o X X X X X X ",
"X X X X X o % 2 4 4 4 A a.d.U l l l l l c l l c l c z h h z m T / a.j.l.z.S.S.S.|.c.c.|.A.z.g.^ u 4 4 4 4 4 4 4 2 % o X X X X X ",
"X X X X o $ 2 4 4 4 4 A a.d.U l l l l l l l l l l c n M B U 9.e.l.S.A.A.A.c.x.h.D.H.H.G.S.A.S.a.A 4 4 4 4 4 4 4 4 2 $ o X X X X ",
"X X X @ % 2 4 4 4 4 4 A a.d.U l l l l l l l l l l c N E e.d.j.l.z.A.A.A.|.x.[ ( J.`.`.(.G.|.S.p.A 4 4 4 4 4 4 4 4 4 2 % @ X X X ",
"X X X @ 1 4 4 4 4 4 4 A u.s.B l l l l l l c n n n N E e.l.A.A.A.A.A.A.S.G.b.H ~ /.[.[.`.H.c.|.a.J u t 4 4 4 4 4 4 4 4 2 @ X X X ",
"X X X @ 1 4 4 4 4 4 4 y T 9.N l l l l l l n N C C E s.l.z.A.A.A.A.z.c.G.).J.~ ~ ^.[.[.`.H.c.c.k.a.^ u 4 4 4 4 4 4 4 4 1 @ X X X ",
"X X o % 2 4 4 4 4 4 7 k B V n l l l l c n N Z 8.0.e.j.A.A.A.A.A.A.z.c.H.'./.~ ~ ^.].{.(.G.c.z.S.S.a.A 4 4 4 4 4 4 4 4 2 $ o X X ",
"X @ % 2 4 4 4 4 4 7 G B M n c l l l l M N Z R 0.s.j.z.A.A.A.A.A.A.z.c.H.'./.~ ~ /.{._.G.S.z.A.A.S.p.A 4 4 4 4 4 4 4 4 4 2 % @ X ",
"X @ 1 4 4 4 4 4 7 k B V n l l l l l l M C 8.R q.j.A.A.A.A.A.A.A.A.z.c.G.).J.( ( ^.).G.c.c.A.A.A.A.a.J u t 4 4 4 4 4 4 4 4 1 @ X ",
"X @ 1 4 4 4 4 7 G B M n c l l l l l l M C 8.R q.j.A.A.A.A.A.A.A.A.A.A.S.G.D.h.h.D.G.S.c.A.A.A.A.A.k.g.^ u 4 4 4 4 4 4 4 4 1 @ X ",
"X @ 1 4 4 4 4 9 U Z M l l l l l l c n N Z Z Z 0.j.|.A.z.c.z.A.A.A.A.A.A.c.z.A.A.c.c.z.A.A.A.A.A.A.A.S.a.A 4 4 4 4 4 4 4 4 1 @ X ",
"X @ 1 4 4 4 4 9 U Z M l l l x x x n N Z Z Z Z 0.f.|.c.c.c.c.A.A.A.A.A.A.z.z.A.A.z.c.z.A.A.A.A.A.A.S.S.p.A 4 4 4 4 4 4 4 4 1 @ X ",
"@ $ 2 4 4 4 4 9 m V n l x v I Y Y Y / t.t.t.t.i.b.m.m.m.m.n.A.z.z.z.z.z.z.c.z.z.z.A.A.A.A.A.A.A.A.A.S.a.J u t 4 4 4 4 4 4 2 $ @ ",
"1 2 4 4 4 4 4 7 v n c x x I o.&.&.&.M.M.M.M.M.B.C.C.C.C.C.Z.n.z.z.z.z.z.z.c.c.z.A.A.A.A.A.A.A.A.A.A.A.k.g.^ u 4 4 4 4 4 4 4 2 1 ",
"4 4 4 4 4 4 4 5 j z c M I Q *.P.L.L.L.L.L.L.L.U.Y.Q.Q.T.T.E.OXoXoXoXoXXXF.m.m.n.A.z.z.z.z.z.A.A.A.A.A.S.S.a.A 4 4 4 4 4 4 4 4 4 ",
"4 4 4 4 4 4 4 4 5 j M W o.*.K.L.L.L.L.L.L.L.L.Y.$X:X:X:X:X>X-X;X;X;X;X#XE.C.C.Z.n.z.z.z.z.z.z.A.A.A.A.A.S.p.A 4 4 4 4 4 4 4 4 4 ",
"4 4 4 4 4 4 4 4 4 y Y v.V.L.L.L.L.L.L.L.L.U.Y.~.<X4X4X4X4X4X4X4X4X4X4X,X~.T.T.E.OXoXoXoXoX.X Xz.A.A.A.A.S.p.A 4 4 4 4 4 4 4 4 4 ",
"4 4 4 4 4 4 4 4 4 a X.V.K.L.L.L.L.L.L.L.L.Y.$X<X2X4X4X4X4X4X4X4X4X4X4X2X,X:X:X>X-X;X;X;X;X*X.Xz.z.A.A.A.S.p.A 4 4 4 4 4 4 4 4 4 ",
"4 4 4 4 4 4 4 4 4 d %.L.L.L.L.L.L.L.L.L.L.Q.:X4X4X4X4X4X4X4X4X4X4X4X4X4X4X4X4X4X4X4X4X4X4X;XoXz.z.A.A.A.S.p.A 4 4 4 4 4 4 4 4 4 ",
"4 4 4 4 4 4 4 4 4 d $.L.L.L.L.L.L.L.L.L.L.Q.:X4X4X4X4X4X4X4X4X4X4X4X4X4X4X4X4X4X4X4X4X4X4X;XoXz.z.A.A.A.S.p.A 4 4 4 4 4 4 4 4 4 ",
"4 4 4 4 4 4 4 4 4 d $.I.L.L.L.L.L.L.L.L.L.T.:X4X4X4X4X4X4X4X4X4X4X4X4X4X4X4X4X4X4X4X4X4X4X1X+X.X Xz.z.A.S.p.A 4 4 4 4 4 4 4 4 4 ",
"4 4 4 4 4 4 4 4 4 d %.I.L.L.L.L.L.L.L.L.K.Q.:X4X4X4X4X4X4X4X3X3X3X4X4X4X4X4X4X3X3X3X4X4X4X2X1X#X.Xz.z.A.S.p.A 4 4 4 4 4 4 4 4 4 ",
"4 4 4 4 4 4 4 4 4 p | =.K.L.L.L.L.L.L.L.L.Q.:X4X4X4X4X4X4X4X3X3X3X4X4X4X4X4X3X3X4X4X4X4X4X4X4X;XoXz.z.A.A.a.J u t 4 4 4 4 4 4 4 ",
"4 4 4 4 4 4 4 4 4 t i K =.L.L.L.L.L.L.L.L.Q.:X4X4X4X4X4X4X4X4X4X4X4X4X4X4X4X4X4X4X4X4X4X4X4X4X;XoXz.z.A.A.k.g.^ u 4 4 4 4 4 4 4 ",
"4 4 4 4 4 4 4 4 4 4 3 a $.I.L.L.L.L.L.L.K.Q.:X4X4X4X4X4X4X4X4X4X4X4X4X4X4X4X4X4X4X4X4X4X4X4X4X;XoXz.z.A.A.S.S.a.A 4 4 4 4 4 4 4 ",
"4 4 4 4 4 4 4 4 4 4 4 d $.I.L.L.L.L.L.L.L.Q.:X4X4X4X4X4X4X4X4X4X4X4X4X4X4X4X4X4X4X4X4X4X4X4X4X;XoXz.z.A.A.A.S.a.A 4 4 4 4 4 4 4 ",
"4 4 4 4 4 4 4 4 4 4 4 p | =.K.L.L.L.L.L.K.Q.:X4X4X4X4X4X4X4X4X4X3X3X4X4X4X4X4X3X4X4X4X4X4X4X4X;XoXz.z.A.A.A.S.p.A 4 4 4 4 4 4 4 ",
"4 4 4 4 4 4 4 4 4 4 4 t i K =.I.L.L.L.L.K.Q.:X4X4X4X4X4X4X3X3X3X3X4X4X4X4X3X3X3X4X4X4X4X4X4X4X;XoXz.z.A.A.A.S.p.A & 4 4 4 4 4 4 ",
"1 2 4 4 4 4 4 4 4 4 4 4 4 i | =.K.L.L.L.L.Y.$X<X2X4X4X4X4X4X3X3X3X3X4X4X4X4X3X3X4X4X4X4X4X4X4X;XoXz.z.A.A.A.A.a.J u t 4 4 4 2 1 ",
"@ $ 2 4 4 4 4 4 4 4 4 4 4 t i K =.I.L.L.L.U.Y.~.<X4X4X4X4X4X4X4X4X4X4X4X4X4X4X4X4X4X3X4X4X4X4X;XoXz.z.A.A.A.A.k.a.^ u 4 4 2 $ @ ",
"X @ 1 4 4 4 4 4 4 4 4 4 4 4 4 i | =.K.L.L.L.L.Y.$X<X2X4X4X4X4X4X4X4X4X4X4X4X4X4X4X4X3X4X4X2X,X#XXXz.z.A.A.A.A.S.S.a.A 4 4 1 @ X ",
"X @ 1 4 4 4 4 4 4 4 4 4 4 4 4 t i K =.I.I.L.L.U.Y.~.<X4X4X4X4X4X4X4X4X4X4X4X4X4X4X3X3X4X4X,X!.E.F.z.z.A.A.A.A.A.S.p.A 4 4 1 @ X ",
"X @ 1 4 4 4 4 4 4 4 4 4 4 4 4 4 4 i | $.$.=.K.L.L.Y.$X:X:X,X2X4X4X4X4X4X4X4X4X4X4X4X4X4X4X-XE.N.n.c.z.A.A.A.A.A.A.a.J u t & @ X ",
"X @ 1 4 4 4 4 4 4 4 4 4 4 4 4 4 4 t i d a K =.L.L.U.Y.T.T.~.<X4X4X4X4X4X4X4X4X4X4X4X4X4X4X=X}.t.j.A.A.A.A.A.A.A.A.k.g.^ u & @ X ",
"X @ % 2 4 4 4 4 4 4 4 4 4 4 4 4 4 4 4 4 3 i ..*.-.,.:.-.-.R.@X&X&X%X%X:X:X:X:X:X:X:X:X>X%X+Xx.9.d.A.A.A.A.A.A.A.A.A.S.g.J y # X ",
"X X o $ 2 4 4 4 4 4 4 4 4 4 4 4 4 4 4 4 4 y F ! O.@.@.@.@.#.5.5.5.6.W.T.T.T.T.T.T.T.T.W.6.4.] 0.j.A.A.A.A.A.A.A.A.A.A.z.g.Y : . ",
"X X X @ 1 4 4 4 4 4 4 4 4 4 4 4 4 4 4 4 5 8 z b ` 3.3.2.2.2.1.1.1.+.;.:.:.:.:.:.:.:.:.;.>.O.W 9.s.j.z.A.A.A.A.A.A.A.A. X Xy.< . ",
"X X X @ 2 4 4 4 4 4 4 4 4 4 4 4 4 4 4 5 j z l b ` 3.3.3.3.2.2.1.1.3.+.@.@.@.@.@.@.+.+.>.;.&./ 8.9.e.j.A.A.A.A.A.A.A.A. X Xy.< . ",
"X X X @ % 2 4 4 4 4 4 4 4 4 4 4 4 4 5 8 z c x G ` 3.3.3.3.3.+.@.@.@.@.@.@.@.@.@.@.@.+.>.<.B.t.Z Z q.j.A.A.A.A.A.A.A.A.|. Xy.< . ",
"X X X X o $ 2 4 4 4 4 4 4 4 4 4 4 5 j z l l x b ` 3.3.3.2.+.;.,.,.,.:.:.:.:.:.:.:.:.:.<.L.M.t.Z Z q.j.A.A.A.A.A.A.A.A.|. Xy.< . ",
"X X X X X o % 2 4 4 4 4 4 4 4 4 4 7 h c l c b H ' 3.3.3.+.>.<.L.L.L.L.L.L.L.L.L.L.L.L.L.L.V.r.w.E 0.s.j.z.A.A.A.A.A.A.|. Xy.< . ",
"X X X X X X o % 2 4 4 4 4 4 4 4 4 7 h c l b _ ' 2.3.3.+.;.<.K.L.L.L.L.L.L.L.L.L.L.L.L.L.L.K.V.v.w.8.9.e.j.A.A.A.A.A.A.|. Xy.< . ",
"X X X X X X X o % 2 4 4 4 4 4 4 5 8 z l x G ` 3.3.3.2.@.,.L.L.L.L.L.L.L.L.L.L.L.L.L.L.L.L.L.L.B.t.Z Z 0.s.j.z.A.A.A.A.|. Xy.< . ",
"X X X X X X X X o % 2 4 4 4 4 5 j z l l l G ` 3.3.3.2.@.,.L.L.L.L.L.L.L.L.L.L.L.L.L.L.L.L.L.L.B.t.Z Z 8.0.e.j.A.A.A.A.|. Xy.< . ",
"X X X X X X X X X o % 2 4 4 4 7 h c l l l G ` 3.3.3.2.@.,.L.L.L.L.L.L.L.L.L.L.L.L.L.L.L.L.L.L.M.t.Z R R R q.j.A.A.A.A.A. Xy.< . ",
"X X X X X X X X X X o % 2 4 4 7 h c l l l G ` 3.3.3.3.@.,.L.L.L.L.L.L.L.L.L.L.L.L.L.L.L.L.L.L.M.t.Z R R R q.j.A.A.A.A.A. Xy.< . ",
"X X X X X X X X X X X o % 2 4 7 h c l l l G ` 3.3.3.2.@.:.L.L.L.L.L.L.L.L.L.L.L.L.L.L.L.L.L.L.M.t.Z R R R q.j.A.A.A.A.A. Xy.< . ",
"X X X X X X X X X X X X o % 2 7 h c l l l G ` 3.3.3.3.@.:.L.L.L.L.L.L.L.L.L.L.L.L.L.L.L.L.L.L.M.t.Z R R R q.j.A.A.A.A.A. Xy.< . ",
"X X X X X X X X X X X X X o % 6 h c c l l G ` 3.3.3.3.@.,.L.L.L.L.L.L.L.L.L.L.L.L.L.L.L.L.L.L.B.t.7.8.R 8.q.j.S. X|.|. X Xy.< . ",
"X X X X X X X X X X X X X X o = g c c c c G ` 3.3.3.3.@.,.I.I.L.L.L.L.L.L.L.L.L.I.I.I.I.L.L.P.B.t.7.8.8.8.q.j. X X X X X Xy.< . ",
"X X X X X X X X X X X X X X X + > g g g f k D L ) ) )  .X.$.$.$.$.$.$.$.$.$.$.$.{ { { { { { } ..P m m m m I W y.y.y.y.y.y.P : X ",
"X X X X X X X X X X X X X X X X + * * * * = ; w r s s s a a a a d d d d a d d a e q q q q q q 0 : - - - - - , < < < < < < : O X ",
"X X X X X X X X X X X X X X X X X X X X X X X @ & 4 4 4 4 4 4 4 4 4 4 4 4 4 4 & @     X       . X X X X . . . . . . . . . X X X "
};
