/* XPM */
static const char *wall[] = {
/* columns rows colors chars-per-pixel */
"64 64 44 1 ",
"  c #454545",
". c #4A4A4A",
"X c #525252",
"o c #545454",
"O c #5B5B5B",
"+ c #5C5C5C",
"@ c #626262",
"# c #676767",
"$ c #696969",
"% c #6E6E6E",
"& c #727272",
"* c #767676",
"= c #7B7B7B",
"- c #7F7F7F",
"; c #808080",
": c #858585",
"> c #8B8B8B",
", c #8C8C8C",
"< c #939393",
"1 c #959595",
"2 c #989898",
"3 c #9C9C9C",
"4 c #A3A3A3",
"5 c #A7A7A7",
"6 c #ABABAB",
"7 c #AFAFAF",
"8 c #B0B0B0",
"9 c #B7B7B7",
"0 c #BABABA",
"q c #BEBEBE",
"w c #C3C3C3",
"e c #C6C6C6",
"r c #CBCBCB",
"t c #CCCCCC",
"y c #D2D2D2",
"u c #D4D4D4",
"i c #DADADA",
"p c #DEDEDE",
"a c #E3E3E3",
"s c #E4E4E4",
"d c #E8E8E8",
"f c #EDEDED",
"g c #F0F0F0",
"h c #F4F4F4",
/* pixels */
":>>=;3$oX. X#%>>&>,,>>>,:&:,,:%%:,:&>:Oo#$%;;;;;;;%$$$%>,<6>;;$O",
">86#O#>468788899899999999899998899989977887,>>>>>,788889081,><3O",
",9wrwee<<epauyeqqqqqqqqqqqqqqqqqqqqqqqqqqqq9999999qqqqqwtw87999:",
">0iddse1:*yfgfaeqqqqqqqqqqqqqqqqqqqqqqqqqqqqqqqqqqqqqqeuie<&6q9>",
"<9iddyrr855idgfsywqwqqqqqqqqqqqqqqqqqqqqqqqqqqqqqqqqqwut0q6@%88%",
"61qap-*1;24rasgddyeywqqqqqqqqqqqqqqqqqqqqqqqqqqqqqqqqya0:793@78%",
">,qpaye>;238adddffpeqqqqqqqqqqqqqqqqqqqqqqqqqqqqqqqqqyiq71>;&89>",
":4ysippyq24yaaffsgaueqqqqqqqqqqqqqqqqqqqqqqqqqqqqqqqqtt996:*6q9,",
":<wsauty,$4ysadfdsdiieqqqqqqqqqqqqqqqqqqqqqqqqqqqqqqqwr01<<7qq9>",
">8wiapaat9ypsdddddssaieqqqqqqqqqqqqqqqqqqqqqqqqqqqqqqqwr099qqq8%",
",9wypaddprpasffddfdaddpeqqqqqqqqqqqqqqqqqqqqqqqqqqqqqqqqqqqqqq8$",
"<8qqeisfdaaaddfgddfddasiewqqqqqqqqqqqqqqqqqqqqqqqqqqqqqqqqqqqq8$",
"619qqweadfdaddfgfddfdasapiewqqqqqqqqqqqqqqqqqqqqqqqqqqqqqqqqqq8#",
":>9qqqqeiffdddffgfdddsaaapiuewqqqqqqqqqqqqqqqqqqqqqqqqqqqqqqqq7X",
"#:9qqqqqeasdfdddghgdddddspreuuwqqqqqqqqqqqqqqqqqqqqqqqqqqqqqqq6 ",
"@>8qqqqqwwedfdddghgfdddddsieeeywqqqqqqqqqqqqqqqqqqqqqqqqqqqqqq7X",
"$539qqqwywwadfddfghggfdddddsieeywqqqqqqqqqqqqqqqqqqqqqqqqqqqqq8$",
"$80qqqqqeyeypsdsddghgffddddddaeeywqqqqqqqqqqqqqqqqqqqqqqqqqqqq9>",
"%7qqqqqqqeuwwiaadddgggffdddsddaeeyeqwqqqqqqqqqqqqqqqqqqqqqqqqq9>",
";,9qqqqqqwueweiaddddfhggffddddsieeyeywqqqqqqqqqqqqqqqqqqqqqqqq8%",
":>9qqqqqqqwuieeiaddddfggfdfdddssieeyryeqqqqqqqqqqqqqqqqqqqqqqq8#",
"X;9qqqqqqqqeiieeisdddsdggfffddsaaieeyryeqqqqqqqqqqqqqqqqqqqqqq7o",
".:0qqqqqqqqqeiiuriasasddgggffdaasapiryrywqqqqqqqqqqqqqqqqqqqqq7X",
"o6qqqqqqqqqqqeururisaaaddfggfdsdddsaaturywqqqqqqqqqqqqqqqqqqqq7X",
"$8qqqqqqqqqqqqwuiewippassdfggssdddddsppurueqqqqqqqqqqqqqqqqqqq6o",
">9qqqqqqqqqqqqqeiueweiaassddfgsdddsdaaptuiieqqqqqqqqqqqqqqqqq9>@",
",9qqqqqqqqqqqqqqweiieeiasddsdsgfdddsasdareiuwqqqqqqqqqqqqqqqq9>@",
">9qqqqqqqqqqqqqqqwiaiwwiasssdddffsdsdddspeweuewqqqqqqqqqqqqqqq6$",
"%8qqqqqqqqqqqqqqqqeipeqeiasaadsddgfdddddspieiiieqqqqqqqqqqqqqq8$",
"$8qqqqqqqqqqqqqqqqqeiuwqeiaaaddddfgfddddsssieepuwqqqqqqqqqqqqq8#",
"$8qqqqqqqqqqqqqqqqqqweywqeiasdddddfggsdddddairueywqqqqqqqqqqqq7+",
"%8qqqqqqqqqqqqqqqqqqqqwywqeiaddddddfffdddddsapeqwywqqqqqqqqqqq9;",
">9qqqqqqqqqqqqqqqqqqqqqwywqwiddddddsdgfddddddaieqeuewwqqqqqqqq8$",
",9qqqqqqqqqqqqqqqqqqqqqqwyeweaddddddddgfddddddsieeiiiuwqqqqqqq7O",
",9qqqqqqqqqqqqqqqqqqqqqqqwuuwepadddddsdghgfddsdspireurywqqqqqq9:",
">9qqqqqqqqqqqqqqqqqqqqqqqqweueeasdsddsdfgfggdddsdsiewyeywqqqqq9>",
">9qqqqqqqqqqqqqqqqqqqqqqqqqwiietuaddsaddsgfgfddddasiewqeywqqqq8%",
",9qqqqqqqqqqqqqqqqqqqqqqqqqqeiiewrasasdddfgfhfsddadsieqqwywqqq8%",
",9qqqqqqqqqqqqqqqqqqqqqqqqqqqwiietypadssdddghhgsddddaayqqeuwqq9:",
",9qqqqqqqqqqqqqqqqqqqqqqqqqqqqwiiyweasasddddfffgddddssaewwueqq9,",
">9qqqqqqqqqqqqqqqqqqqqqqqqqqqqqeiuwqypasdddddfsggfddddssiewywq9:",
">9qqqqqqqqqqqqqqqqqqqqqqqqqqqqqqweueqwiaddddddffggfddddfsieeqq8&",
">9qqqqqqqqqqqqqqqqqqqqqqqqqqqqqqqwuueweiaaaddddggggfdsdddapuwq9>",
",9qqqqqqqqqqqqqqqqqqqqqqqqqqqqqqqqweuueeiaadddddfgggdddddsapeq9,",
":9qqqqqqqqqqqqqqqqqqqqqqqqqqqqqqqqqqweuiriasdsdddfgffddddddsie9>",
"%8qqqqqqqqqqqqqqqqqqqqqqqqqqqqqqqqqqqqeiuriaasdddffddfdddsdfdi0%",
"%8qqqqqqqqqqqqqqqqqqqqqqqqqqqqqqqqqqqqqweuriaaadddffdgfddddddat*",
">9qqqqqqqqqqqqqqqqqqqqqqqqqqqqqqqqqqqqqqwiiriaasdddfdfgdddddfau3",
">9qqqqqqqqqqqqqqqqqqqqqqqqqqqqqqqqqqqqqqqeiurppaaasdfdfffdddddi5",
"%8qqqqqqqqqqqqqqqqqqqqqqqqqqqqqqqqqqqqqqqqweuitpaaaadfgfgfsdddi5",
"$8qqqqqqqqqqqqqqqqqqqqqqqqqqqqqqqqqqqqqqqqqqeiipsaaasdsffdfdddi5",
"$8qqqqqqqqqqqqqqqqqqqqqqqqqqqqqqqqqqqqqqqqqqqwwepsssaassfdgdddp5",
"$8qqqqqqqqqqqqqqqqqqqqqqqqqqqqqqqqqqqqqqqqqqqqqqtupassdddddfddp5",
"$8qqqqqqqqqqqqqqqqqqqqqqqqqqqqqqqqqqqqqqqqqqqqqqwtuaaaddddddddp5",
"$8qqqqqqqqqqqqqqqqqqqqqqqqqqqqqqqqqqqqqqqqqqqqqqqwtrsaadspadadp5",
"$8qqqww99q0qqqqqqqqqqqqqqqqqqqqqqqqqqqqqqqqqqqqqqqwrypss977t0ap4",
"$8qqet2,,519qqqqqqqqqqqqqqqqqqqqqqqqqqqqqqqqqqqqqqqqwyfdwr,>5ai:",
"$8qwut66*%>9qqqqqqqqqqqqqqqqqqqqqqqqqqqqqqqqqqqqqqqqqwii8ay26ai-",
"$8qwur297;>9qqqqqqqqqqqqqqqqqqqqqqqqqqqqqqqqqqqqqqqqqqwrqiy,7au&",
"%8qqwr896*,9qqqqqqqqqqqqqqqqqqqqqqqqqqqqqqqqqqqqqqqqqqqqe2:3yay%",
">9qqqqe1=>8qqqqqqqqqqqqqqqqqqqqqqqqqqqqqqqqqqqqqqqqqqq02289qyat&",
",9qq022889qqqqqqqqqqqqqqqqqqqqqqqqqqqqqqqqqqqqqqqq99999658990qq:",
":7888678889998899889988889887788888999889999999998<>>>;%@$;>>>>%",
"$;%$$%:%$%>,>%%>>%%>>%$$%;%#oo#$$$%:,>%%:,>>,,,,,>:;:-$;3##;::;-"
};
