/* XPM */
static const char *exit[] = {
/* columns rows colors chars-per-pixel */
"64 64 33 1 ",
"  c #6F9EFF",
". c #709FFF",
"X c #75A3FF",
"o c #79A6FF",
"O c #7DAAFF",
"+ c #83AEFF",
"@ c #88AFFE",
"# c #85B1FF",
"$ c #8BB4FF",
"% c #92B8FE",
"& c #94B8FE",
"* c #96BBFE",
"= c #97BCFE",
"- c #99BAFE",
"; c #99BDFE",
": c #9FBEFE",
"> c #A0BFFD",
", c #9FC0FE",
"< c #A3C1FE",
"1 c #A7C3FD",
"2 c #A7C6FE",
"3 c #AAC7FD",
"4 c #ACC7FD",
"5 c #ABC8FD",
"6 c #ADC8FD",
"7 c #B1CBFD",
"8 c #B2CCFD",
"9 c #B6CDFD",
"0 c #B8CFFD",
"q c #BAD0FD",
"w c #BCD2FD",
"e c #BFD4FD",
"r c #C0D4FC",
/* pixels */
"72*###$32;+Xo#$$<8<$996;$###<3,$oX+#$;76$2q8<%###%52%OXO#$%39;*w",
"22####;2*+XO##*67*,7q;6$###%2;#Xo+#$29;;3w,3;###$,<$oXO##,92*<98",
"$3$##+%OXXO##;w3%6q5%#,:##+$#oXo##$99*<q7:#%3##+#$oXo+##2w,*992$",
"#**OoOoo+$$$:9:%32$###$:+oOOoo#$$*73%<6%####:$ooOoo@%$%28*;6:###",
"oo1%##@$-*392$=e8@+##Oo*:@$+$*-:96*$8e%+##+o@2#$@#%-*78<#<r1+###",
"X+3,%%1:-<<*#$8q%+##OXO;3%$:1-<<;##2q1+##+oo$6*$*3;:<<$+*q9@+##O",
"##:94%-;;$##;287###oo+$%99**;;*##$<68;+#Ooo##39<%;;;$##,283@#+oo",
"209q:%%$####7q61%#oo+*99q3%%%####:w82:@+o+$5909-%%$###$q93<##oO#",
"e3-+######O#8626#+XO;99>#######++2927*+oX%6q1%@######O*9352++X@<",
"*########*o@;<17:$X;8<########$@o-:233%o@83%########%X%;117*@X36",
"$#+Ooo#*@oX.+,;169>9*$##Ooo+%$OX.o*<-77242$##Oooo$%+XXX#2*667<9$",
"#+%*%%1-@ooX+#+*3-3;##+#*%%:<#OoXO###4*2<$#+@*%%*2%+oXo##+<<:3%#",
"X+#691%##%OX+##@1-#+#oo@>95*$#$@XO##+::%O#Oo+%97,$##%oo###$1*+##",
"@3*2$####;@.o+#+#3%Ooo>-<=####%*Xo+##+:<+oo%1-<#####:OXO+#+$6#Oo",
"7q8$######o .o+#+%8<#<q9:###+##+X oO+##36%%9q3###@##+o XO+#+:8;#",
"q3%#######OXXoo#OO67998;#######+oXXX++o:9899<$#######oXXoo#o#960",
"$$######$#+Xoo oo18:%$$######$$#oXo oo%91*$$$######$#O.oXXo+66;$",
"oo+++##%%#XXO+$O#9:%$ooO+++#$*$o.Oo$O+26$%+oO++++#*$+XoO@@O*9%%$",
"#@+@O$,*-%#%$*31<93$###++++:;**#$%$13:68*@##@++O*,*;$#%#:4<29<##",
"08q<@*06:,388$@<#@199q996$#69:<<79:+-*@*999999-@:q1<,693#$:@#699",
"*78%OO#;3*13+ o607396<<q:+O@%2:;6%XX;q93863-q3#O+$<2*6<o @996686",
"8q3*$##:=%:OXo$<<qq27qq7;$##*,%:#Xo+<<8w62wq9<%###<*=*oXO*<3w92q",
"6<####%62$XX+#$;8<*;q26$###$33*oXo##%63;%966=####:6,#Xo+#$<6:%2q",
"*3####;$OXo##$7q:,9w2$2*###%*+oX+##<w3*7w8%:<###$;#oXo##%q9*2qq,",
"#<%+oo+XoO##$77%;8,$##*<#Oo+oXo###<q;%62%##$2#+oO+Xo+##%q2$<7;$#",
"++;@O#O+%;:36<%69%+###O*$o#OO$:;<63%<q<+###O#-O@+O@*;:36;=97####",
"XO3;#@-:*-63$#3r:O###oo;2##%>-*17*#;w8++##OX#6%##:-*:7<#$8w%+##+",
"O#<31-<;:,$#$*99#+#+oo+%63-:::<%##$59:+#+oo+#33<-<;<;##$,96+##OX",
"*<3r1$**$###5973$#+oO$,<r7%%-%###;q86:##oo#;<9w-%**$##$9863##OoO",
"qw4-*$######8051$+oo$3e7:*$$####+<w63*+OX#;w01*%$####+%w83<#+X+$",
"3%#+#####%o$3><9$+ @78;$++####$@O1<,7,+oo29<%#+#####$o-1:26#O *8",
"$##+++#%#@XX#31363@72%@#++++$#@OX+:7>65$:9*##++++#$@+XO%7>65:#q;",
"#+@+Oo**@ooX+$#>3373###@@+o$:$ooXO#$%6<76%##+@+O+:*+oXX#$#3<67<#",
"OO*366<%#+XX+##$3%*##+o$1471;##oXO##+1**###o@:373,$#+Xo##+*1%%##",
"X%+3<$###:@XO##+*2#OOX#@;6%###*-Xo####<*O+oO%#7;$###<oo+##@;1O+O",
":07;######O XO##+<2$o#892#######..o+#+%3*OO206$######o oO##@3,#o",
"w9:#######oXXoo+++8869q2$######+XXXoO#O<q58w6*#######oXXoO#+$q66",
",;$#######+XooX+o$73<:;%#######+oXo.+O+362::*########OXoXo+o;82<",
"O+#####$*#oXOoXXO81$%O+######%$OXoooXX,9%%@O+#####$%+oXOoXX#0-%$",
"oooOo+$%%$oOO#2*<q<$@oooooO#*%%+o+O1--97%#OoooOo#%%%#o+O*<*3q-#@",
"731:#-92:%:33:-3#*6<;361<%$76:*%26<*3%$13;<621-@19<:%<62-<<#;6:;",
":4q%o+:13238:oo<2-:9q4<q<OO%113<83+X%3:*7q9:97@o#<<3<67%X+3<*2qq",
"3w6;$#+-;#2%XX@78ww9660q,%#+$<#;,o.o27qwq376e2*#+#:%$2@ X*89ww67",
"83*###$32=@Xo+#%28<%997;$###<3:$oX+#$:75%3q8<%###*6<%OXO#$*57;;w",
"<2####;<%OXO##;96%<99*6$###%<*@Xo##$69=:6w;3;###$,:#oX+##<0<*2q6",
"#3$#++$oXo+##:w<%892$#,,##O$@XXO##$98%2q3=#$3##+@$oXo+##3q;*q7,$",
"#%*Oo+oo@%$%<8;;6<#####:@oOooO$%$;72%26$####;$ooOoo#%$*36*:7-###",
"oo1%#@#%-*39<#;r6+###OX*<#$@%**:03%$9e$+##+o@3#$@$*-*97:#2r>+###",
"o#2<*%3:;1:$#$9q%+##OXO;3*%>1-<<*##2q<O##+oo$5;%-3-:1;$+*q8@+#+o",
"#$:q3$*;-$##,387$#+oo+$%99*%;;%##%368;##OoO$$3q>$-;*###2383##+oo",
"3w99:%%$####8q61%#oo#=q993%%$####:e72:@+o+$7q97*%%$###$w93<##oO#",
"w1*+######O$7427#+XO,q7;@@#####++37<7-+oX%8q>$+######O-9253+O.#2",
"*########%X+*126<%X>8:########$+X*:323*o@9<$########%X$-3<7;#o65",
"$#+Ooo#*@XX.+;*16919%##+Ooo+*$ooXo%,-7646<###Oooo%*+XXX#<%66917$",
"++%---2-@ooX+#+*3*1*##+#---<<#OoXO###3*<:##+@*-;;2%+oXo##+><;1$#",
"X+@68,$##*OX+##@<;#+#oo@:02*##$#XO##+-,%O#OX@$96;$##*oo####1-+#+",
"#4;<$####*@ o+#+@3*+oO1>1%####$*XXO##+:1@oo*3::#####-oXO+#+$6#OX",
"9q6$######o..oO++$82%1w9;###+##+X XO+#@38*;002###+##+o XO+#+;9,%",
"92$#######OoXoo#OO66986;#######+oXoX++o:9887<########oXoXo#o#969",
"########$#+Xoo oo37;%########$$+oXo oX*9:*#########$#OXOXXo@83;$",
"ooO+++#%%#XXO+%+$9:%$ooO+++#%%$o.Oo*+@34$%+ooO+++$*$+Xoo$$+;9%%$",
"%$@#O%1-;%#*%-33:66$#$$##+@<:-*#%*%<6:37-##%#@@O-<*;$$-%:4<<71##",
"98q>+%96<<387#+>$@<qq07q6#@39>1189-O*-@%9qq999*+;01<<692+@:##6q0",
"%77$+O#-3%<3+ o6q9685:<q;+O+$3;*7$XX;q06762-02#O+#<2$6,o @9q8676"
};
