/* XPM */
static const char *floor[] = {
/* columns rows colors chars-per-pixel */
"64 64 61 1 ",
"  c #3C793E",
". c #3F7E41",
"X c #407E41",
"o c #418243",
"O c #448846",
"+ c #458A48",
"@ c #4A934D",
"# c #4D994F",
"$ c #4F9C51",
"% c #509F53",
"& c #52A355",
"* c #54A857",
"= c #56AC59",
"- c #58AF5B",
"; c #5BB45E",
": c #5DB760",
"> c #5FBA61",
", c #61BE63",
"< c #63C265",
"1 c #65C768",
"2 c #68CE6B",
"3 c #63D266",
"4 c #65D468",
"5 c #6AD26E",
"6 c #6CD770",
"7 c #6EDA73",
"8 c #71DE75",
"9 c #6DE271",
"0 c #72E176",
"q c #74EA76",
"w c #74E579",
"e c #76EA7B",
"r c #78EC7D",
"t c #78ED7D",
"y c #78ED7E",
"u c #77F079",
"i c #78F27C",
"p c #79F27C",
"a c #7AF07F",
"s c #79F47D",
"d c #7AF47E",
"f c #7CF67E",
"g c #7CF77E",
"h c #7DF87F",
"j c #85F175",
"k c #84F679",
"l c #82F77E",
"z c #83F87D",
"x c #82FB7F",
"c c #7BF380",
"v c #7CF380",
"b c #7EF783",
"n c #7EF883",
"m c #7FFD81",
"M c #7FFE83",
"N c #7FFA84",
"B c #83FB80",
"V c #83FC80",
"C c #80FB85",
"Z c #82FE87",
"A c #82FF87",
/* pixels */
"$*;72;;*=,<2222<2555555555552<<25555500085221>;;*%=>,>=*;**=;*%;",
"O-161;*126885580000000888888088wii08865555552<,;,275651,>;121;;;",
"&*;;;6rww66wwweeeeeew6666666weew7666680060wwwwicvbZnrww0086wr55;",
";>528erNZNNZZZZZZZZZZNNNNNNNCZZCNNNNb66ebZZZZNrrrrZZZZZZZZnrw51,",
"*>56nZZZZZZZZZZZZZZZZZZZZZZZZZZZZZZZZNnZZZZZZZZZZZZZZZZZZZZZb1,6",
"%10bZZZZZZZZZZZZZZZZZZZZZZZZZZZZZZZZZZZZZZZZZZZZZZZZZZZZZZZZC8<1",
"&6rZZZZZZZZZZZZZZZZZZZZZZZZZZZZZZZZZZZZZZZZZZZZZZZZZZZZZZZZZZw1,",
"*<cZZZZZZZZZZZZZZZZZZZZZZZZZZZZZZZZZZZZZZZZZZZZZZZZZZZZZZZZZZ0<1",
"*,wZZZZZZZZZZZZZZZZZZZZZZZZZZZZZZZZZZZZZZZZZZZZZZZZZZZZZZZZZZ0<2",
"@1wZZZZZZZZZZZZZZZZZZZZZZZZZZZZZZZZZZZZZZZZZZZZZZZZZZZZZZZZZn6<6",
"$1wZZZZZZZZZZZZZZZZZZZZZZZZZZZZZZZZZZZZZZZZZZZZZZZZZZZZZZZZZr8<5",
"$1eZZZZZZZZZZZZZZZVVVVZZZZZZZZZZZZZVZZZZZZZZZZZZZZZZZZZZZZZZe058",
"$2bZZZZZZZZZZZZVVVVVVVVZZZZZZZZZZZZVZZZZZZZZZZZZZZZZZZZZZZZZw68e",
"$2NZZZZZZZZVVVVzVVVzkVVVZVnrVZZZZZVnZZZZZZZZZZZZZZZZZZZZZZZN686r",
"@2NZZZZZZZBVVVVVVVVVjzVVVmunZZZZZZVdmZZZVVZZZZZZZZZZZZZZZZZN608<",
"@6NZZZZZZZVVVZZVZZVVVVVZVnfVZZVZZVVmiVVZVVVZZZZZZZZZZZZZZZZn5w8=",
"@6rZZZZZZZVVmZZZZVZVZVVVmunZZVVVZZZmrVVVZVVZZZZZZZZZZZZZZZZb2i8;",
"&7eZZZZZZZVVmVVZZZZZZmZVhmZZZVVVZVVmqmVmZZZZVZZZZZZZZZZZZZZw6v52",
">8eZZZZZZZVVVVVVVZZZZZVdmZVZZVVVVVZmqnmdVVZVZZZZZZZZZZZZZZZrei16",
",8eZZZZZZZVZVVVVVVVZZVnrVZZZZVVVmmZVdmnmZZVVZVZZZVZZZZZZZZZZN011",
",8eZZZZZZZVVVVVZVVVVmVnmVVVZZZZVZZVVVmnZZZVVVVZZViVZZZZZZZZZN66;",
",8eZZZZZZZZVVVZZVVVVmnVVVZZZnZZVZZVVVnnVVZVZZVVZVfVZZZZZZZZZN68,",
";8eNZZZZZZZVVVVVVVmmrdZZVZZZmVZZVVVZZVVVZZZZVZVZZVdVVZZZZZZZN682",
"=8wrZZZZZZZZZZnVVVmiumZZVVVVZVVZVVZZZmVVZVZZZZVZZZnZZZZZZZZZN67,",
"=7weZZZZZZZZZZVhmVmddmVZZZVZZVZVVZZZmdVVZVVVVZVZZVmZZZZZZZZZb67;",
"&6weZZZZZZZZZZZVZVqnmVVVZZVZZVVVVZZZVhVVZZVVVZZZZZmVVZZZZZZZrbw7",
"%7erZZZZZZZZZZZZZnqmZZVVVVVZZVVVVZVVVVVZZZVVVVVVZVmVVZZZZZZZrNw5",
"%8NZZZZZZZZZZZZZZn9nVZZZVVVZZVVVVVZVVZVVZZVVVVZVZVdVZZZZZZZCrn0<",
"&rZZZZZZZZZZZZZZZn9nZZZZVVVZZVVVVVVVZZZVVZVVVZZZVnVVZZZZZZZZrb5>",
"&rZZZZZZZZZZZZZZZZmZZZVVVZVZZVVVVVVZVVZZVZVVVZZVVmZVVZZZZZZZrb5>",
"&0ZZZZZZZZZZZZZZZZVZZZVZVVZZZVVVVVVVVVVZVZVVZZZVVVZZVZZZZZZZrb5,",
"$8ZZZZZZZZZZZZZZZZVZVnnZVVVVZVVVVVZVVVVZZVZVZZZVVVZZVVZZZZZZrb51",
"#8ZZZZZZZZZZZZZZZZZZVVVmVVVZZVVVZVZZVVVVZZZVVVZVVZZZVZZZZZZZrb62",
"*0ZZZZZZZZZZZZVVVZZZZZVVZVZZZZZVZZZVZZZZZZZZZZZmVVZZVVZZZZZZew05",
";0NZZZZZZZZZZZZVVVZZZZVZZZVVZVZVVVZVVZZZZVZZZVVVVZVZVVVZZZZZw002",
",8erZZZZZZZZZZZViVVZVVVZZZVVZVVVVVZVVZVZVZVVVVVVVZZVZZZBZZZZe68<",
"<8weZZZZZZZZZVVVimVZZZVVZZVVZVVZZZVZVZVZZVVVZVVVVVVVZZZZZZZZb675",
"20wrZZZZZZZZZVZmqnZZZZVZZZZVZVVVVZZZZVVVVZVVVZZmZVzVVZBZZZZZZ018",
"<8eNZZZZZZZZZZZZndVVZZZZZZZZZVVVZVVZVVVVVZVZVZZZVZVVVZVlBZZZN018",
",8eCZZZZZZZZZZVVZdVVZZVZVVZZVZVVZZVZVVZVVZVZZZZVZZVZZZZZZZZZr050",
",8eZZZZZZZZZZZZVVumZZVVZVVVVZZVVZVVVZVZVZVVVVVVZZZVVZZZZZZZZb550",
",8eZZZZZZZZZZZZZVdZZZZVVVVVZZZZVZVVZZZZVZZVVVVVZZZVZZZZZZZZZN510",
",0eZZZZZZZZVVVVZVnVVZZVVZZZVVZZVZVVVVVZVVVVVmVZZZZZZVVVZZZZZN8-6",
"<rrZZZZZZZVVVVVVZVnVZZZVVVVVZZmVVVVZVVVVVVVVVZVZVVZVVZZVZZZZir;6",
",0eZZZZZVZVZVZVVZVdZZVVVZVVZVVVVVVZVVVZZZZVZVVVmZVZVVZZVZZZZZb<,",
",8eZZZZVZVZVVVVVVVmVZVZZZVZZVVVVZZVVVVVZZZVVVVVVZVZZVVVVVZZZZe2>",
",8eZZZZZVZZVZZVZZZZZZZZVZVmmVZVVVZVZZVVZZZVVZZVVVZVZVVVVVVVZZw2>",
",8eZZZZZZVVVVVVZVZZVVVZZZVhdmVVZVVVVVVZVZVVZVZVVZZVZZVVZVnqZZw1>",
"<8eZZZZZZVfVVVZVVVVVZZZZZVVmfmZZZVmVVVZZZZZVVVVVVVVVVZVZVn9nZ0>*",
"20eZZZZZZVqmVVZVZZVVZZZZZZZZVZZZZZVZZVZZZVVVZVVVVVZVVVZVnmrVZ0;;",
"20eZZZZZVVhVVVVZZVVVVZZZZZZZVZZZZVZmZZZZVVZZZVVVVVVZZVVmVVhZZ02>",
"<8eZZZZZZVnVVZVVVVVVVZZZZZZZZVZZZmZZVZZZZVZVVVVVVVVZVVmhhumZn78<",
",8eZZZZZZVVhVVVVVZVVZVVZZZZZZZZZZZZZZZVVZZVVVVVVVVVVVVmuqqmZCei5",
";8eZZZZZZZVudVZZVZZZZZZZZZZZZZZVZZZZZZZZZZVVmVVVZZZVZVmfdnZZNe0>",
":6eZZZZZZZZnqnZZVZZZZZZZZZZZZZZZZZZZZZZZZZZZmrmZZZVZZmiumZZZrw6#",
"%>8ZZZZZZZZZnVZZZZZZZZZZZZZZZZiZZZZZZZZZZZZZn4hZVVZVZm03bZZZe01#",
"**1bZZZZZZZZZZZZZZZZZZZZZZZZZZZZZZZZZZZZZZZZZhVZZZZZZZnnZZZZw02;",
"1;1wZZZZZZZZZZZZZZZZZZZZZZZZZZZZZZZZZZZZZZZZZZZZZZZZZZZZZZZn681-",
"1--5NZZZZZZZZZZZZZZZZZZZZZZZZZZZZZZZZZZZZZZZZZZZZZZZZZZZZZZb68,;",
"1;;<bZZZZZZZZZZZZZZZZZZZZZZZZZZZZZZZZZZZZZZZCZNiiZZZZZZZZZN608,;",
"1-1;8rNZZZZZZZZZZZZZZZZZZZZZCZZZZZZZZZZbeerrrrrbnZZZZZZZZZb561;*",
"*&2,50000008880wweeewwweeewweewww000ww0550bbbbbrrbbbZZZZNi5;;$$*",
"#$;;56;>>:*%%&;116872258082288211>;;11<11,125558855508661;&oo+**",
"# ;<*>;;*$@##$@$$&=>->>,,,==>,>*%*15;=;=;*%*>>=>,>>>>%X.#$oo+o*;"
};
